svg/design/layout_5_line.svg

<svg xmlns="http://www.w3.org/2000/svg" width="24" height="24" viewBox="0 0 24 24"><g fill="none" fill-rule="evenodd"><rect width="24" height="24"/><path fill="#09244B" d="M19,3 C20.0543909,3 20.9181678,3.81587733 20.9945144,4.85073759 L21,5 L21,19 C21,20.0543909 20.18415,20.9181678 19.1492661,20.9945144 L19,21 L5,21 C3.94563773,21 3.08183483,20.18415 3.00548573,19.1492661 L3,19 L3,5 C3,3.94563773 3.81587733,3.08183483 4.85073759,3.00548573 L5,3 L19,3 Z M19,10 L5,10 L5,19 L19,19 L19,10 Z M16,15 C16.5523,15 17,15.4477 17,16 C17,16.51285 16.613973,16.9355092 16.1166239,16.9932725 L16,17 L8,17 C7.44772,17 7,16.5523 7,16 C7,15.48715 7.38604429,15.0644908 7.88337975,15.0067275 L8,15 L16,15 Z M16,12 C16.5523,12 17,12.4477 17,13 C17,13.5523 16.5523,14 16,14 L8,14 C7.44772,14 7,13.5523 7,13 C7,12.4477 7.44772,12 8,12 L16,12 Z M19,5 L5,5 L5,8 L19,8 L19,5 Z"/></g></svg>

<svg xmlns="http://www.w3.org/2000/svg" width="24" height="24"><g fill="none" fill-rule="evenodd"><path d="M0 0h24v24H0z"/><path fill="#09244B" d="M19 3a2 2 0 0 1 1.995 1.85L21 5v14a2 2 0 0 1-1.85 1.995L19 21H5a2 2 0 0 1-1.995-1.85L3 19V5a2 2 0 0 1 1.85-1.995L5 3zm0 7H5v9h14zm-3 5a1 1 0 0 1 .117 1.993L16 17H8a1 1 0 0 1-.117-1.993L8 15zm0-3a1 1 0 1 1 0 2H8a1 1 0 1 1 0-2zm3-7H5v3h14z"/></g></svg>
